src/scalable/mimetypes/application-x-php.svg

<?xml version="1.0" encoding="UTF-8" standalone="no"?>
<svg
   xmlns:dc="http://purl.org/dc/elements/1.1/"
   xmlns:cc="http://creativecommons.org/ns#"
   xmlns:rdf="http://www.w3.org/1999/02/22-rdf-syntax-ns#"
   xmlns:svg="http://www.w3.org/2000/svg"
   xmlns="http://www.w3.org/2000/svg"
   xmlns:xlink="http://www.w3.org/1999/xlink"
   xmlns:sodipodi="http://sodipodi.sourceforge.net/DTD/sodipodi-0.dtd"
   xmlns:inkscape="http://www.inkscape.org/namespaces/inkscape"
   width="48px"
   height="48px"
   viewBox="0 0 48 48"
   version="1.1"
   id="svg22"
   sodipodi:docname="application-x-php.svg"
   inkscape:version="0.92.2 2405546, 2018-03-11">
  <metadata
     id="metadata26">
    <rdf:RDF>
      <cc:Work
         rdf:about="">
        <dc:format>image/svg+xml</dc:format>
        <dc:type
           rdf:resource="http://purl.org/dc/dcmitype/StillImage" />
      </cc:Work>
    </rdf:RDF>
  </metadata>
  <sodipodi:namedview
     pagecolor="#ffffff"
     bordercolor="#666666"
     borderopacity="1"
     objecttolerance="10"
     gridtolerance="10"
     guidetolerance="10"
     inkscape:pageopacity="0"
     inkscape:pageshadow="2"
     inkscape:window-width="1920"
     inkscape:window-height="1051"
     id="namedview24"
     showgrid="false"
     inkscape:zoom="6.9532167"
     inkscape:cx="25.983147"
     inkscape:cy="2.9375306"
     inkscape:window-x="0"
     inkscape:window-y="29"
     inkscape:window-maximized="1"
     inkscape:current-layer="svg22" />
  <!-- Generator: Sketch 41.2 (35397) - http://www.bohemiancoding.com/sketch -->
  <title
     id="title2">application-x-php</title>
  <desc
     id="desc4">Created with Sketch.</desc>
  <g
     id="g829">
    <rect
       rx="2"
       ry="1.9047618"
       y="4"
       x="6"
       height="40"
       width="36"
       id="rect834"
       style="opacity:1;fill:#f9a825;fill-opacity:1;stroke:none;stroke-width:0.92582005;stroke-linecap:round;stroke-linejoin:round;stroke-miterlimit:4;stroke-dasharray:none;stroke-opacity:0.05882353;paint-order:markers stroke fill" />
    <path
       inkscape:connector-curvature="0"
       id="rect866"
       d="M 42,17.242188 A 40,40 0 0 1 23.494141,44 H 40 c 1.108,0 2,-0.849059 2,-1.904297 z"
       style="opacity:0.15;fill:url(#linearGradient877);fill-opacity:1;stroke:none;stroke-width:0.92582005;stroke-linecap:round;stroke-linejoin:round;stroke-miterlimit:4;stroke-dasharray:none;stroke-opacity:0.05882353;paint-order:markers stroke fill" />
  </g>
  <defs
     id="defs11">
    <linearGradient
       inkscape:collect="always"
       xlink:href="#linearGradient875"
       id="linearGradient877"
       x1="32.74707"
       y1="44"
       x2="32.74707"
       y2="17.242188"
       gradientUnits="userSpaceOnUse" />
    <linearGradient
       inkscape:collect="always"
       id="linearGradient875">
      <stop
         style="stop-color:#000000;stop-opacity:1;"
         offset="0"
         id="stop871" />
      <stop
         style="stop-color:#000000;stop-opacity:0;"
         offset="1"
         id="stop873" />
    </linearGradient>
  </defs>
  <path
     style="fill:#ffffff;fill-rule:evenodd;stroke:none;stroke-width:1"
     d="M 24 16 A 11 8 0 0 0 13 24 A 11 8 0 0 0 24 32 A 11 8 0 0 0 35 24 A 11 8 0 0 0 24 16 z M 23.035156 19.054688 L 24.560547 19.054688 L 24.240234 20.742188 L 25.6875 20.742188 C 26.973369 20.822547 27.455656 21.465952 27.294922 22.269531 L 26.730469 25.564453 L 25.125 25.564453 L 25.6875 22.589844 C 25.76787 22.188054 25.767649 21.947266 25.205078 21.947266 L 23.998047 21.947266 L 23.275391 25.564453 L 21.748047 25.564453 L 23.035156 19.054688 z M 17.328125 20.742188 L 20.302734 20.742188 C 21.588603 20.822547 22.230469 21.464833 22.230469 22.589844 C 22.230469 24.518435 20.704126 25.644811 19.337891 25.564453 L 17.890625 25.564453 L 17.570312 27.251953 L 16.042969 27.251953 L 17.328125 20.742188 z M 28.097656 20.742188 L 31.070312 20.742188 C 32.356182 20.822544 33 21.464833 33 22.589844 C 33 24.518435 31.473657 25.644811 30.107422 25.564453 L 28.660156 25.564453 L 28.337891 27.251953 L 26.8125 27.251953 L 28.097656 20.742188 z M 18.615234 21.947266 L 18.212891 24.357422 L 19.177734 24.357422 C 19.901035 24.277065 20.542677 24.036007 20.623047 22.669922 C 20.623047 22.187774 20.220771 21.947266 19.658203 21.947266 L 18.615234 21.947266 z M 29.382812 21.947266 L 28.982422 24.357422 L 29.945312 24.357422 C 30.668615 24.277065 31.312208 24.036007 31.392578 22.669922 C 31.392578 22.187774 30.990302 21.947266 30.427734 21.947266 L 29.382812 21.947266 z "
     id="Oval-104" />
</svg>

<svg xmlns="http://www.w3.org/2000/svg" xmlns:xlink="http://www.w3.org/1999/xlink" width="48" height="48"><g paint-order="markers stroke fill"><rect rx="2" ry="1.905" y="4" x="6" height="40" width="36" fill="#f9a825"/><path d="M42 17.242A40 40 0 0 1 23.494 44H40c1.108 0 2-.85 2-1.904z" opacity=".15" fill="url(#a)"/></g><defs><linearGradient xlink:href="#b" id="a" x1="32.747" y1="44" x2="32.747" y2="17.242" gradientUnits="userSpaceOnUse"/><linearGradient id="b"><stop offset="0"/><stop offset="1" stop-opacity="0"/></linearGradient></defs><path d="M24 16a11 8 0 0 0-11 8 11 8 0 0 0 11 8 11 8 0 0 0 11-8 11 8 0 0 0-11-8zm-.965 3.055h1.526l-.32 1.687h1.447c1.285.08 1.768.724 1.607 1.528l-.565 3.294h-1.605l.563-2.974c.08-.402.08-.643-.483-.643h-1.207l-.723 3.617h-1.527l1.287-6.51zm-5.707 1.687h2.975c1.286.08 1.927.723 1.927 1.848 0 1.928-1.526 3.055-2.892 2.974H17.89l-.32 1.688h-1.528l1.285-6.51zm10.77 0h2.972c1.286.08 1.93.723 1.93 1.848 0 1.928-1.526 3.055-2.893 2.974H28.66l-.322 1.688h-1.526l1.286-6.51zm-9.483 1.205l-.402 2.41h.965c.723-.08 1.365-.321 1.445-1.687 0-.482-.402-.723-.965-.723h-1.043zm10.768 0l-.4 2.41h.962c.724-.08 1.367-.321 1.448-1.687 0-.482-.403-.723-.965-.723h-1.045z" fill="#fff" fill-rule="evenodd"/></svg>
